images/icons.svg/advantages/clock.svg

<svg width="76" height="78" viewBox="0 0 76 78" fill="none" xmlns="http://www.w3.org/2000/svg">
<g clip-path="url(#clip0_1_344)" filter="url(#filter0_dd_1_344)">
<path d="M71.4614 33.4715C71.4576 14.9819 56.4656 -0.00373771 37.9754 6.99302e-07C19.4858 0.00373911 4.50017 14.9963 4.50391 33.4859C4.50711 48.0502 13.9252 60.9413 27.7995 65.3713C27.9319 65.413 28.0697 65.4343 28.2081 65.4338C28.4719 65.4333 28.7304 65.3628 28.9573 65.2287C29.2527 65.0541 29.4732 64.7764 29.5768 64.449L38.0315 37.6521C40.3429 37.6404 42.2068 35.7568 42.1945 33.4459C42.1827 31.1345 40.2997 29.2706 37.9883 29.2824C37.3666 29.285 36.753 29.4282 36.1944 29.7011L25.0251 18.5302C24.4707 17.9951 23.5879 18.0106 23.0528 18.5644C22.5305 19.1054 22.5305 19.962 23.0528 20.503L34.2162 31.6792C33.3596 33.4277 33.8493 35.5383 35.3895 36.7303L27.3338 62.2647C11.4135 56.4002 3.26169 38.7405 9.12618 22.8203C14.9907 6.90002 32.6503 -1.25183 48.5706 4.61266C64.4909 10.4771 72.6427 28.1374 66.7782 44.0571C63.913 51.8351 58.0261 58.1252 50.4548 61.4989L49.5842 57.3989C49.4251 56.6454 48.6844 56.1636 47.9308 56.3233C47.6931 56.3741 47.4726 56.4857 47.291 56.6475L38.8978 64.1409C38.322 64.653 38.2708 65.5347 38.7835 66.1105C38.9501 66.2974 39.1637 66.4362 39.403 66.5126L50.1188 69.9327C50.8521 70.1682 51.6377 69.765 51.8732 69.0312C51.948 68.7994 51.9603 68.5527 51.9101 68.3145L51.0545 64.2915C63.4452 59.0678 71.4902 46.918 71.4614 33.4715ZM37.9829 32.0766C38.753 32.0766 39.3779 32.7014 39.3779 33.4715C39.3779 34.2422 38.753 34.8665 37.9829 34.8665C37.2123 34.8665 36.588 34.2422 36.588 33.4715C36.588 32.7014 37.2123 32.0766 37.9829 32.0766ZM42.5774 64.5916L47.3551 60.3298L48.6737 66.543L42.5774 64.5916Z" fill="#212121"/>
<path d="M36.5879 6.96729V9.7572C36.5879 10.5278 37.2122 11.1522 37.9828 11.1522C38.753 11.1522 39.3778 10.5278 39.3778 9.7572V6.96729C39.3778 6.19717 38.753 5.57233 37.9828 5.57233C37.2122 5.57233 36.5879 6.19717 36.5879 6.96729Z" fill="#2196F3"/>
<path d="M11.4787 32.0765C10.7081 32.0765 10.0837 32.7014 10.0837 33.4715C10.0837 34.2421 10.7081 34.8665 11.4787 34.8665H14.2686C15.0393 34.8665 15.6636 34.2421 15.6636 33.4715C15.6636 32.7014 15.0393 32.0765 14.2686 32.0765H11.4787Z" fill="#2196F3"/>
<path d="M64.4866 34.8665C65.2572 34.8665 65.8815 34.2421 65.8815 33.4715C65.8815 32.7014 65.2572 32.0765 64.4866 32.0765H61.6967C60.9265 32.0765 60.3017 32.7014 60.3017 33.4715C60.3017 34.2421 60.9265 34.8665 61.6967 34.8665H64.4866Z" fill="#2196F3"/>
</g>
<defs>
<filter id="filter0_dd_1_344" x="-1" y="0" width="78" height="78" filterUnits="userSpaceOnUse" color-interpolation-filters="sRGB">
<feFlood flood-opacity="0" result="BackgroundImageFix"/>
<feColorMatrix in="SourceAlpha" type="matrix" values="0 0 0 0 0 0 0 0 0 0 0 0 0 0 0 0 0 0 127 0" result="hardAlpha"/>
<feOffset dy="4"/>
<feGaussianBlur stdDeviation="2"/>
<feComposite in2="hardAlpha" operator="out"/>
<feColorMatrix type="matrix" values="0 0 0 0 0 0 0 0 0 0 0 0 0 0 0 0 0 0 0.25 0"/>
<feBlend mode="normal" in2="BackgroundImageFix" result="effect1_dropShadow_1_344"/>
<feColorMatrix in="SourceAlpha" type="matrix" values="0 0 0 0 0 0 0 0 0 0 0 0 0 0 0 0 0 0 127 0" result="hardAlpha"/>
<feOffset dy="4"/>
<feGaussianBlur stdDeviation="2"/>
<feComposite in2="hardAlpha" operator="out"/>
<feColorMatrix type="matrix" values="0 0 0 0 0 0 0 0 0 0 0 0 0 0 0 0 0 0 0.25 0"/>
<feBlend mode="normal" in2="effect1_dropShadow_1_344" result="effect2_dropShadow_1_344"/>
<feBlend mode="normal" in="SourceGraphic" in2="effect2_dropShadow_1_344" result="shape"/>
</filter>
<clipPath id="clip0_1_344">
<rect width="70" height="70" fill="white" transform="translate(3)"/>
</clipPath>
</defs>
</svg>

<svg width="76" height="78" fill="none" xmlns="http://www.w3.org/2000/svg"><g clip-path="url(#a)" filter="url(#b)"><path d="M71.461 33.471C71.458 14.982 56.466-.004 37.975 0 19.485.004 4.5 14.996 4.504 33.486A33.479 33.479 0 0 0 27.799 65.37c.133.042.27.063.41.063.263 0 .521-.071.748-.205.296-.175.516-.453.62-.78l8.454-26.797a4.184 4.184 0 1 0-1.837-7.95L25.025 18.53a1.395 1.395 0 0 0-1.972 1.973l11.163 11.176a4.104 4.104 0 0 0 1.173 5.051l-8.055 25.535C11.414 56.4 3.262 38.74 9.126 22.82 14.991 6.9 32.65-1.252 48.571 4.613c15.92 5.864 24.072 23.524 18.207 39.444A30.72 30.72 0 0 1 50.455 61.5l-.87-4.1a1.394 1.394 0 0 0-2.294-.752l-8.393 7.494a1.394 1.394 0 0 0 .505 2.372l10.716 3.42a1.394 1.394 0 0 0 1.791-1.619l-.855-4.022a33.37 33.37 0 0 0 20.406-30.82Zm-33.478-1.394a1.395 1.395 0 1 1 0 2.79 1.395 1.395 0 0 1 0-2.79Zm4.594 32.515 4.778-4.262 1.319 6.213-6.097-1.951Z" fill="#212121"/><path d="M36.588 6.967v2.79a1.395 1.395 0 1 0 2.79 0v-2.79a1.395 1.395 0 0 0-2.79 0ZM11.479 32.077a1.395 1.395 0 0 0 0 2.79h2.79a1.395 1.395 0 1 0 0-2.79h-2.79ZM64.487 34.867a1.395 1.395 0 1 0 0-2.79h-2.79a1.395 1.395 0 0 0 0 2.79h2.79Z" fill="#2196F3"/></g><defs><clipPath id="a"><path fill="#fff" transform="translate(3)" d="M0 0h70v70H0z"/></clipPath><filter id="b" x="-1" y="0" width="78" height="78" filterUnits="userSpaceOnUse" color-interpolation-filters="sRGB"><feFlood flood-opacity="0" result="BackgroundImageFix"/><feColorMatrix in="SourceAlpha" values="0 0 0 0 0 0 0 0 0 0 0 0 0 0 0 0 0 0 127 0" result="hardAlpha"/><feOffset dy="4"/><feGaussianBlur stdDeviation="2"/><feComposite in2="hardAlpha" operator="out"/><feColorMatrix values="0 0 0 0 0 0 0 0 0 0 0 0 0 0 0 0 0 0 0.25 0"/><feBlend in2="BackgroundImageFix" result="effect1_dropShadow_1_344"/><feColorMatrix in="SourceAlpha" values="0 0 0 0 0 0 0 0 0 0 0 0 0 0 0 0 0 0 127 0" result="hardAlpha"/><feOffset dy="4"/><feGaussianBlur stdDeviation="2"/><feComposite in2="hardAlpha" operator="out"/><feColorMatrix values="0 0 0 0 0 0 0 0 0 0 0 0 0 0 0 0 0 0 0.25 0"/><feBlend in2="effect1_dropShadow_1_344" result="effect2_dropShadow_1_344"/><feBlend in="SourceGraphic" in2="effect2_dropShadow_1_344" result="shape"/></filter></defs></svg>
